X:55
T:55.  Walking Past Midnight (g#aea tuning)
C:c 2003 Harry Bolick  
R:Breakdown
O:United States
A:Hastings On Hudson, New York
M:2/4
L:1/8
Q:180
K:A
(EFG) |:"A" A3E | "E" G3(G/2F/2 |E) cB2|c B/2c/2B/2A/2 F |
"A"A3E | "E" G3(G/2F/2 |E)c B/2A/2F/2E/2|"A"A4 {(E/2F/2G/2)}:|
|:  "E" EE E/2F/2G/2A/2| gf ec |"D" f2  (f/2e/2)(B |"A"c4)|
 "E" EE E/2F/2G/2A/2| gf ec| "D"ff (f/2e/2)c|"E" B4:|
